X:573
T: "Die Jagd"
N: Z1253
O: Europa, Mitteleuropa, Deutschland
R: Liebes - Lied
M: 2/4
L: 1/16
K: G
G2 | F2E2F2G2 | A4F2D2 | G4z2
G2 | B2B2B2B2 | c2cBc2
B2 | A2A2A2A2 | d4d2
G2 | F2E2F2G2 | A4F2D2 | G4
d4 | B2G2F2G2 | A4F2D2 | G4z2

@@@ Tune index: 10331
